**kern	**kern
*staff1	*staff2
*clefG2	*clefG2
*k[b-e-a-d-]	*k[b-e-a-d-]
*M2/4	*M2/4
*f:	*f:
[8c [8cc	8r
=341	=341
8c] 8cc]	4C' 4G' 4B-'
(4d- 4dd-	.
.	4C' 4G' 4B-'
8c) 8cc	.
=342	=342
8r	4C' 4F' 4A-'
(4e 4ee	.
.	4C' 4F' 4A-'
8f) 8ff	.
=343	=343
8r	4C' 4E' 4G'
(4cc 4ccc	.
.	4C' 4E' 4G'
8b-) 8bb-	.
=344	=344
8r	4C' 4F' 4A-'
(4a- 4aa-	.
.	4C' 4F' 4A-'
8f) 8ff	.
=345	=345
8r	4C 4G 4B-
(4d- 4dd-	.
.	4C 4G 4B-
8c) 8cc	.
=346	=346
8r	4F 4A-
(4e 4ee	.
.	4D- 4F 4A-
8f) 8ff	.
=347	=347
8r	4BB- 4F 4G
8b- 8bb-	.
8r	4C 4G 4B-
8e 8ee	.
=348	=348
8r	8F 8A-
8f 8ff	8r
8r	8C
8c 8cc	8r
=349	=349
8r	8FF
8F 8f	8r
4r	4r
==||	==||
*-	*-
